coloringbook/images/bulb.svg

<?xml version="1.0" encoding="UTF-8" standalone="no"?>
<svg width="247px" height="346px" viewBox="0 0 247 346" version="1.1" xmlns="http://www.w3.org/2000/svg" xmlns:xlink="http://www.w3.org/1999/xlink" xmlns:sketch="http://www.bohemiancoding.com/sketch/ns">
    <!-- Generator: Sketch 3.3.3 (12072) - http://www.bohemiancoding.com/sketch -->
    <title>bulb</title>
    <desc>Created with Sketch.</desc>
    <defs></defs>
    <g id="Page-1" stroke="none" stroke-width="1" fill="none" fill-rule="evenodd" sketch:type="MSPage">
        <g id="bulb" sketch:type="MSArtboardGroup" fill="#22292E">
            <path d="M172.339567,232.575415 C170.80552,232.575415 169.332591,231.712175 168.631778,230.23408 C167.670198,228.192029 168.542139,225.748897 170.58346,224.781824 C209.268738,206.488872 234.265755,167.009894 234.265755,124.206219 C234.265755,62.7797705 184.25746,12.8075394 122.79169,12.8075394 C61.3259208,12.8075394 11.3217009,62.7797705 11.3217009,124.206219 C11.3217009,166.944743 36.2779728,206.423722 74.9062072,224.785896 C76.9495656,225.757041 77.8174327,228.198137 76.845666,230.242224 C75.8698249,232.284275 73.4292033,233.149551 71.3858449,232.180442 C29.9238004,212.466402 3.13196927,170.086204 3.13196927,124.206219 C3.13196927,58.2681199 56.8113821,4.62304688 122.79169,4.62304688 C188.774036,4.62304688 242.455486,58.2681199 242.455486,124.206219 C242.455486,170.157462 215.618836,212.53766 174.087525,232.182478 C173.523207,232.451223 172.924257,232.575415 172.339567,232.575415" id="Fill-657" stroke="#22292E" stroke-width="8" sketch:type="MSShapeGroup"></path>
            <path d="M122.763169,150.131923 C108.484107,150.131923 96.863652,138.500578 96.863652,124.206219 C96.863652,109.930184 108.484107,98.3191988 122.763169,98.3191988 C137.074827,98.3191988 148.719729,109.930184 148.719729,124.206219 C148.719729,138.500578 137.074827,150.131923 122.763169,150.131923 L122.763169,150.131923 Z M122.763169,106.503691 C112.998646,106.503691 105.053384,114.441835 105.053384,124.206219 C105.053384,133.988927 112.998646,141.94743 122.763169,141.94743 C132.560288,141.94743 140.529997,133.988927 140.529997,124.206219 C140.529997,114.441835 132.560288,106.503691 122.763169,106.503691 L122.763169,106.503691 Z" id="Fill-658" sketch:type="MSShapeGroup"></path>
            <path d="M172.372163,314.680941 L73.1256536,314.680941 C70.8622725,314.680941 69.0307878,312.850628 69.0307878,310.588695 L69.0307878,228.299934 C69.0307878,226.038001 70.8622725,224.207688 73.1256536,224.207688 L172.372163,224.207688 C174.633507,224.207688 176.467029,226.038001 176.467029,228.299934 L176.467029,310.588695 C176.467029,312.850628 174.633507,314.680941 172.372163,314.680941 L172.372163,314.680941 Z M77.2205194,306.496449 L168.277297,306.496449 L168.277297,232.390145 L77.2205194,232.390145 L77.2205194,306.496449 Z" id="Fill-659" stroke="#22292E" stroke-width="8" sketch:type="MSShapeGroup"></path>
            <path d="M181.052871,248.822244 L64.4918021,248.822244 C62.2304583,248.822244 60.3989736,246.993967 60.3989736,244.732033 C60.3989736,242.4701 62.2304583,240.639787 64.4918021,240.639787 L181.052871,240.639787 C183.316252,240.639787 185.147737,242.4701 185.147737,244.732033 C185.147737,246.993967 183.316252,248.822244 181.052871,248.822244" id="Fill-660" sketch:type="MSShapeGroup"></path>
            <path d="M181.052871,265.31135 L64.5081001,265.31135 C62.2447191,265.31135 60.4152715,263.483072 60.4152715,261.221139 C60.4152715,258.959206 62.2447191,257.128893 64.5081001,257.128893 L181.052871,257.128893 C183.316252,257.128893 185.147737,258.959206 185.147737,261.221139 C185.147737,263.483072 183.316252,265.31135 181.052871,265.31135" id="Fill-661" sketch:type="MSShapeGroup"></path>
            <path d="M181.052871,281.753629 L64.5081001,281.753629 C62.2447191,281.753629 60.4152715,279.921279 60.4152715,277.661382 C60.4152715,275.399449 62.2447191,273.569136 64.5081001,273.569136 L181.052871,273.569136 C183.316252,273.569136 185.147737,275.399449 185.147737,277.661382 C185.147737,279.921279 183.316252,281.753629 181.052871,281.753629" id="Fill-662" sketch:type="MSShapeGroup"></path>
            <path d="M181.052871,298.199979 L64.5081001,298.199979 C62.2447191,298.199979 60.4152715,296.371702 60.4152715,294.107733 C60.4152715,291.847836 62.2447191,290.015487 64.5081001,290.015487 L181.052871,290.015487 C183.316252,290.015487 185.147737,291.847836 185.147737,294.107733 C185.147737,296.371702 183.316252,298.199979 181.052871,298.199979" id="Fill-663" sketch:type="MSShapeGroup"></path>
            <path d="M148.302093,340.177061 L97.2711013,340.177061 C95.0077202,340.177061 93.1762355,338.346748 93.1762355,336.084815 L93.1762355,310.588695 C93.1762355,308.326762 95.0077202,306.496449 97.2711013,306.496449 L148.302093,306.496449 C150.567512,306.496449 152.396959,308.326762 152.396959,310.588695 L152.396959,336.084815 C152.396959,338.346748 150.567512,340.177061 148.302093,340.177061 L148.302093,340.177061 Z M101.365967,331.992568 L144.209265,331.992568 L144.209265,314.680941 L101.365967,314.680941 L101.365967,331.992568 Z" id="Fill-664" stroke="#22292E" stroke-width="8" sketch:type="MSShapeGroup"></path>
            <path d="M122.783542,232.39218 C120.524235,232.39218 118.688676,230.559831 118.688676,228.299934 L118.668303,146.039676 C118.668303,143.783851 120.499788,141.94743 122.763169,141.94743 C125.022476,141.94743 126.858035,143.779779 126.858035,146.039676 L126.878407,228.299934 C126.878407,230.557795 125.046923,232.39218 122.783542,232.39218" id="Fill-665" sketch:type="MSShapeGroup"></path>
        </g>
    </g>
</svg>

<svg width="247" height="346" viewBox="0 0 247 346" xmlns="http://www.w3.org/2000/svg"><title>bulb</title><g fill="#22292E" fill-rule="evenodd"><path d="M172.34 232.575c-1.534 0-3.007-.863-3.708-2.34-.962-2.043-.09-4.486 1.95-5.453 38.687-18.293 63.684-57.772 63.684-100.576 0-61.426-50.01-111.398-111.474-111.398-61.466 0-111.47 49.972-111.47 111.398 0 42.74 24.956 82.218 63.584 100.58 2.044.97 2.91 3.412 1.94 5.456-.976 2.042-3.417 2.908-5.46 1.938-41.462-19.714-68.254-62.094-68.254-107.974 0-65.938 53.68-119.583 119.66-119.583 65.982 0 119.663 53.645 119.663 119.583 0 45.95-26.836 88.332-68.367 107.976-.565.27-1.164.393-1.748.393" stroke="#22292E" stroke-width="8"/><path d="M122.763 150.132c-14.28 0-25.9-11.63-25.9-25.926 0-14.276 11.62-25.887 25.9-25.887 14.312 0 25.957 11.61 25.957 25.886 0 14.295-11.645 25.926-25.957 25.926zm0-43.628c-9.764 0-17.71 7.938-17.71 17.702 0 9.783 7.946 17.74 17.71 17.74 9.797 0 17.767-7.957 17.767-17.74 0-9.764-7.97-17.702-17.767-17.702z"/><path d="M172.372 314.68H73.126c-2.264 0-4.095-1.83-4.095-4.09V228.3c0-2.262 1.832-4.092 4.096-4.092h99.246c2.262 0 4.095 1.83 4.095 4.092v82.29c0 2.26-1.833 4.09-4.095 4.09zm-95.15-8.184h91.055V232.39H77.22v74.106z" stroke="#22292E" stroke-width="8"/><path d="M181.053 248.822H64.493c-2.263 0-4.094-1.828-4.094-4.09 0-2.262 1.83-4.092 4.092-4.092h116.56c2.264 0 4.096 1.83 4.096 4.092 0 2.262-1.832 4.09-4.095 4.09M181.053 265.31H64.508c-2.263 0-4.093-1.827-4.093-4.09 0-2.26 1.83-4.09 4.093-4.09h116.545c2.263 0 4.095 1.83 4.095 4.09 0 2.263-1.832 4.09-4.095 4.09M181.053 281.754H64.508c-2.263 0-4.093-1.833-4.093-4.093s1.83-4.09 4.093-4.09h116.545c2.263 0 4.095 1.83 4.095 4.09s-1.832 4.094-4.095 4.094M181.053 298.2H64.508c-2.263 0-4.093-1.828-4.093-4.092 0-2.26 1.83-4.093 4.093-4.093h116.545c2.263 0 4.095 1.833 4.095 4.093 0 2.264-1.832 4.092-4.095 4.092"/><path d="M148.302 340.177h-51.03c-2.264 0-4.096-1.83-4.096-4.092V310.59c0-2.263 1.832-4.094 4.095-4.094h51.032c2.266 0 4.095 1.83 4.095 4.093v25.495c0 2.262-1.83 4.092-4.095 4.092zm-46.936-8.184h42.843V314.68h-42.844v17.313z" stroke="#22292E" stroke-width="8"/><path d="M122.784 232.392c-2.26 0-4.095-1.832-4.095-4.092l-.022-82.26c0-2.256 1.832-4.093 4.095-4.093 2.26 0 4.095 1.833 4.095 4.093l.02 82.26c0 2.258-1.83 4.092-4.094 4.092"/></g></svg>
